!!!COM: Palestrina, Giovanni Perluigi da
!!!OPR: Missa Viri Galilaei
!!!OTL: Agnus I
**kern	**kern	**kern	**kern	**kern	**kern
*Ibass	*Itenor	*Itenor	*Icalto	*Icalto	*Icant
!Bassus	!Tenor 2	!Tenor 1	!Altus 2	!Altus 1	!Cantus
*clefF4	*clefGv2	*clefGv2	*clefG2	*clefG2	*clefG2
*k[b-]	*k[b-]	*k[b-]	*k[b-]	*k[b-]	*k[b-]
*G:dor	*G:dor	*G:dor	*G:dor	*G:dor	*G:dor
*M4/2	*M4/2	*M4/2	*M4/2	*M4/2	*M4/2
=1	=1	=1	=1	=1	=1
0r	0r	0r	1g	1r	0dd
.	.	.	2f	2r	.
.	.	.	[2b-	[2g	.
=2	=2	=2	=2	=2	=2
0r	0r	0r	2b-]	2g]	1dd
.	.	.	2a	2f	.
.	.	.	2g	2b-	1dd
.	.	.	2f	2a	.
=3	=3	=3	=3	=3	=3
0r	0r	0r	2e	2g	1cc
.	.	.	2.f	2.a	.
.	.	.	.	.	[1dd
.	.	.	4e	4g	.
.	.	.	4d	4f	.
.	.	.	4c	4e	.
=4	=4	=4	=4	=4	=4
0r	0r	0r	2B-	2d	2dd]
.	.	.	2c	2e	2cc
.	.	.	2d	2f	2.b-
.	.	.	2e-	[2g	.
.	.	.	.	.	8a
.	.	.	.	.	8g
=5	=5	=5	=5	=5	=5
1r	1r	0r	1d	2g]	1a
.	.	.	.	2f#	.
1G	[1d	.	1r	2g	1g
.	.	.	.	2b-	.
=6	=6	=6	=6	=6	=6
2F	1d]	2r	0r	2a	0r
1B-	.	1G	.	4g	.
.	.	.	.	4f	.
.	1d	.	.	2g	.
2A	.	2F	.	2a	.
=7	=7	=7	=7	=7	=7
2G	1d	2B-	1r	4d	0r
.	.	.	.	4e	.
2F	.	2A	.	4f	.
.	.	.	.	4d	.
1E-	1c	1G	2r	1g	.
.	.	.	[2g	.	.
=8	=8	=8	=8	=8	=8
2.D	1.d	1A	2g]	0r	0r
.	.	.	2f	.	.
4C	.	.	.	.	.
2BB-	.	2.f	2b-	.	.
2F	2c	.	[2a	.	.
.	.	4e	.	.	.
=9	=9	=9	=9	=9	=9
1G	2.B-	2d	4a]	0r	2r
.	.	.	4g	.	.
.	.	2d	1g	.	1dd
.	8A	.	.	.	.
.	8G	.	.	.	.
1D	1A	1d	.	.	.
.	.	.	2f#	.	2a
=10	=10	=10	=10	=10	=10
2.G	1G	0d	1g	1r	4b-
.	.	.	.	.	4cc
.	.	.	.	.	4dd
8F	.	.	.	.	4ee
8E	.	.	.	.	.
4D	2r	.	1r	[1a	1ff
4E	.	.	.	.	.
4F	2d	.	.	.	.
4G	.	.	.	.	.
=11	=11	=11	=11	=11	=11
2A	2c	2r	0r	1a]	2ee
2D	2f	1d	.	.	2dd
1A	1e	.	.	1a	1ee
.	.	2c	.	.	.
=12	=12	=12	=12	=12	=12
0r	2d	2f	0r	1a	1r
.	2c	2e	.	.	.
.	1B-	1d	.	1g	2r
.	.	.	.	.	[2dd
=13	=13	=13	=13	=13	=13
2r	1A	1e	2r	1.a	2dd]
2A	.	.	2a	.	2cc
2D	1B-	2d	2f	.	2ff
2E	.	2G	2g	2g	[2ee
=14	=14	=14	=14	=14	=14
2F	[0A	4c	[0a	2.f	4ee]
.	.	4A	.	.	4dd
2D	.	2.a	.	.	1dd
.	.	.	.	8e	.
.	.	.	.	8d	.
1A	.	.	.	1e	.
.	.	4g	.	.	.
.	.	2e	.	.	2cc#
=15	=15	=15	=15	=15	=15
0D	1A]	2.f#	1a]	1d	1dd
.	.	4g	.	.	.
.	1d	2a	1f#	2r	2r
.	.	2d	.	2a	2dd
=16	=16	=16	=16	=16	=16
0r	1G	0r	1g	1b-	1dd
.	2d	.	2f	2a	2dd
.	2d	.	2a	2f	2dd
=17	=17	=17	=17	=17	=17
0r	1c	0r	2cc	1g	1ee-
.	.	.	2cc	.	.
.	1G	.	[1b-	1g	2dd
.	.	.	.	.	4g
.	.	.	.	.	4a
=18	=18	=18	=18	=18	=18
1G	2.g	2r	1b-]	1r	4b-
.	.	.	.	.	4cc
.	.	1G	.	.	2.dd
.	4f	.	.	.	.
1C	1e-	.	[1g	2r	.
.	.	.	.	.	4cc
.	.	2c	.	2g	2cc
=19	=19	=19	=19	=19	=19
2G	1d	2B-	2g]	1b-	1dd
2G	.	2G	4d	.	.
.	.	.	4e	.	.
1F	1r	4A	4f	2a	1r
.	.	4B-	4g	.	.
.	.	4c	4a	2f	.
.	.	4d	4b-	.	.
=20	=20	=20	=20	=20	=20
1C	0r	2e	2.cc	2.g	0r
.	.	4c	.	.	.
.	.	4d	8b-	4f	.
.	.	.	8a	.	.
2.c	.	4e	1g	2e	.
.	.	4f	.	.	.
.	.	[2g	.	2c	.
4B-	.	.	.	.	.
=21	=21	=21	=21	=21	=21
1A	1r	2g]	1a	1cc	1r
.	.	2f	.	.	.
1G	2r	1g	[1d	2b-	2r
.	[2g	.	.	[2b-	[2dd
=22	=22	=22	=22	=22	=22
0r	2g]	0r	1d]	2b-]	2dd]
.	2f#	.	.	2a	2dd
.	2g	.	1r	2b-	2dd
.	2c	.	.	2cc	2ee
=23	=23	=23	=23	=23	=23
0r	2.d	2r	2r	4a	4ff
.	.	.	.	4g	4ee
.	.	1d	1f	4f	4dd
.	4e	.	.	4e	4cc
.	4f	.	.	2d	2b-
.	4d	.	.	.	.
.	[2e	2c#	2e	2A	2a
=24	=24	=24	=24	=24	=24
0r	4e]	2d	2f	1d	1b-
.	4d	.	.	.	.
.	1d	2G	2g	.	.
.	.	1A	1e	2r	2.a
.	2c#	.	.	2a	.
.	.	.	.	.	4g
=25	=25	=25	=25	=25	=25
2r	2d	2d	1d	2a	2f#
1G	1B-	1d	.	2b-	2g
.	.	.	1r	2g	1dd
2F#	2A	2d	.	2a	.
=26	=26	=26	=26	=26	=26
2G	2B-	2d	0r	1g	1r
2C	2c	2e	.	.	.
1D	1A	1f#	.	1r	2r
.	.	.	.	.	[2dd
=27	=27	=27	=27	=27	=27
1E	1G	1g	0r	2r	2dd]
.	.	.	.	1g	2cc#
1D	1A	1r	.	.	2dd
.	.	.	.	2f#	2a
=28	=28	=28	=28	=28	=28
0r	0r	0r	2r	2g	2b-
.	.	.	1g	2c	2cc
.	.	.	.	1d	2.a
.	.	.	2f#	.	.
.	.	.	.	.	4b-
=29	=29	=29	=29	=29	=29
0r	1.c	0r	1g	2e	4cc
.	.	.	.	.	4dd
.	.	.	.	4c	4ee
.	.	.	.	4d	4ff
.	.	.	2c	4e	2ee
.	.	.	.	4f	.
.	2B	.	2d	[2g	[2dd
=30	=30	=30	=30	=30	=30
0r	2c	1r	2e	2g]	4dd]
.	.	.	.	.	4cc
.	2F	.	2f	2a	1cc
.	1G	2r	1d	2.g	.
.	.	[2g	.	.	2b
.	.	.	.	4f	.
=31	=31	=31	=31	=31	=31
0r	1A	2g]	2c	4e	1cc
.	.	.	.	4d	.
.	.	2f#	2cc	2c	.
.	2G	2g	2b	2d	1r
.	[2g	2c	2cc	2e-	.
=32	=32	=32	=32	=32	=32
1r	2g]	1d	1a	2d	1.dd
.	2f#	.	.	2a	.
[1G	2g	2G	1g	2b-	.
.	4G	[2d	.	2b-	2dd
.	4A	.	.	.	.
=33	=33	=33	=33	=33	=33
2G]	4B-	2d]	1d	2b-	2.dd
.	4c	.	.	.	.
2F#	2.d	2A	.	2.a	.
.	.	.	.	.	4cc
2G	.	2B-	1r	.	2b-
.	4B-	.	.	4g	.
2C	2e-	2c	.	[2g	2g
=34	=34	=34	=34	=34	=34
0D	0d	0A	0a	2g]	0dd
.	.	.	.	4f#	.
.	.	.	.	4e	.
.	.	.	.	1f#	.
=35	=35	=35	=35	=35	=35
0G	0d	0G	0b	0g	0dd
==	==	==	==	==	==
*-	*-	*-	*-	*-	*-
!!!CDT: 1525/^1526/-1594/2/2
!!!OCY: Italia
!!!AGN: Mass (Parody)
!!!AST: renaissance, vocal
!!!ASW: Motet 1569 (Palestrina)
!!!PWK: Masses, Book 12
!!!RNB: Cadence finals: D
!!!YOR: Le Opere Complete, v. 29, p. 159
!!!YOO: Rome, Italy: Fratelli Scalera
!!!END: 1992//
!!!EED: John Miller
!!!YEC: Copyright 2000, John Miller
!!!YEN: United States of America
!!!YEM: Rights to all derivative electronic formats reserved.
!!!YEM: Refer to licensing agreement for further details.
!!!YEM: This file must be accompanied by the licensing agreement.
!!!YEM: A copy of the licensing agreement may be found at http://www.music-cog.ohio-state.edu/HumdrumDatabases/Palestrina/license.txt
!!!EMD: converted to Humdrum by Bret Aarden
